svg/copper2oxide.svg

<?xml version="1.0" encoding="UTF-8" standalone="no"?>
<!-- Created with Inkscape (http://www.inkscape.org/) -->

<svg
   width="32"
   height="32"
   viewBox="0 0 8.4666666 8.4666668"
   version="1.1"
   id="svg5"
   inkscape:version="1.2 (dc2aeda, 2022-05-15)"
   sodipodi:docname="copper2oxide.svg"
   xmlns:inkscape="http://www.inkscape.org/namespaces/inkscape"
   xmlns:sodipodi="http://sodipodi.sourceforge.net/DTD/sodipodi-0.dtd"
   xmlns="http://www.w3.org/2000/svg"
   xmlns:svg="http://www.w3.org/2000/svg"
   xmlns:rdf="http://www.w3.org/1999/02/22-rdf-syntax-ns#"
   xmlns:cc="http://creativecommons.org/ns#">
  <sodipodi:namedview
     id="namedview7"
     pagecolor="#ffffff"
     bordercolor="#111111"
     borderopacity="1"
     inkscape:pageshadow="0"
     inkscape:pageopacity="0"
     inkscape:pagecheckerboard="1"
     inkscape:document-units="mm"
     showgrid="true"
     width="32mm"
     units="px"
     objecttolerance="10000"
     guidetolerance="10000"
     inkscape:snap-perpendicular="true"
     inkscape:snap-tangential="true"
     inkscape:zoom="34.90625"
     inkscape:cx="16.014324"
     inkscape:cy="16.028648"
     inkscape:window-width="2560"
     inkscape:window-height="1301"
     inkscape:window-x="0"
     inkscape:window-y="25"
     inkscape:window-maximized="0"
     inkscape:current-layer="layer1"
     gridtolerance="10000"
     inkscape:showpageshadow="0"
     inkscape:deskcolor="#d1d1d1">
    <inkscape:grid
       type="xygrid"
       id="grid9"
       units="px"
       empspacing="2" />
  </sodipodi:namedview>
  <defs
     id="defs2" />
  <g
     inkscape:label="Layer 1"
     inkscape:groupmode="layer"
     id="layer1">
    <g
       id="g1219"
       transform="translate(-1.3229166)">
      <path
         id="path7852"
         style="fill:#000000;fill-opacity:1;stroke:none;stroke-width:0.999999"
         d="m 11,10 c -2.209139,-2e-7 -4.0000001,2.686291 -4,6 -1e-7,3.313709 1.790861,6 4,6 1.695223,1.58e-4 3.434926,-1.602592 4,-4 h -2 c -0.356983,1.236626 -1.286034,1.99887 -2,2 -1.1045695,0 -2.0000001,-1.790861 -2,-4 -10e-8,-2.209139 0.8954305,-4 2,-4 0.713966,0.0011 1.643017,0.763374 2,2 h 2 C 14.434926,11.602593 12.695223,9.9998423 11,10 Z"
         transform="scale(0.26458333)"
         sodipodi:nodetypes="csccccscccc" />
      <path
         id="path6913"
         style="fill:#000000;fill-opacity:1;stroke:none;stroke-width:0.309422"
         d="m 4.4979166,3.7041666 v 1.0583333 h 0.00206 A 1.0583332,1.0855733 0 0 0 5.5562499,5.8208333 1.0583332,1.0855733 0 0 0 6.1572467,5.6280801 h 5.292e-4 l 0.192224,0.1927532 H 6.6145833 V 3.7041666 H 6.0854166 V 4.7624999 A 0.52916663,0.52916663 0 0 1 5.5562499,5.2916666 0.52916663,0.52916663 0 0 1 5.0270833,4.7624999 V 3.7041666 Z" />
      <path
         id="path948"
         style="fill:#000000;fill-opacity:1;stroke:none;stroke-width:0.264583"
         d="m 8.2020833,2.6458333 a 1.0583333,1.5875 0 0 0 -1.0583333,1.5875 1.0583333,1.5875 0 0 0 1.0583333,1.5875 1.0583333,1.5875 0 0 0 1.0583333,-1.5875 1.0583333,1.5875 0 0 0 -1.0583333,-1.5875 z m 0,0.5291667 A 0.52916663,1.0583333 0 0 1 8.73125,4.2333333 0.52916663,1.0583333 0 0 1 8.2020833,5.2916666 0.52916663,1.0583333 0 0 1 7.6729167,4.2333333 0.52916663,1.0583333 0 0 1 8.2020833,3.175 Z" />
    </g>
  </g>
  <metadata
     id="metadata33">
    <rdf:RDF>
      <cc:Work
         rdf:about="">
        <cc:license
           rdf:resource="http://creativecommons.org/licenses/by-sa/4.0/" />
      </cc:Work>
      <cc:License
         rdf:about="http://creativecommons.org/licenses/by-sa/4.0/">
        <cc:permits
           rdf:resource="http://creativecommons.org/ns#Reproduction" />
        <cc:permits
           rdf:resource="http://creativecommons.org/ns#Distribution" />
        <cc:requires
           rdf:resource="http://creativecommons.org/ns#Notice" />
        <cc:requires
           rdf:resource="http://creativecommons.org/ns#Attribution" />
        <cc:permits
           rdf:resource="http://creativecommons.org/ns#DerivativeWorks" />
        <cc:requires
           rdf:resource="http://creativecommons.org/ns#ShareAlike" />
      </cc:License>
    </rdf:RDF>
  </metadata>
</svg>

<svg width="32" height="32" viewBox="0 0 8.467 8.467" xmlns="http://www.w3.org/2000/svg"><path style="fill:#000;fill-opacity:1;stroke:none;stroke-width:.999999" d="M11 10c-2.21 0-4 2.686-4 6s1.79 6 4 6c1.695 0 3.435-1.603 4-4h-2c-.357 1.237-1.286 1.999-2 2-1.105 0-2-1.79-2-4s.895-4 2-4c.714.001 1.643.763 2 2h2c-.565-2.397-2.305-4-4-4Z" transform="matrix(.26458 0 0 .26458 -1.323 0)"/><path style="fill:#000;fill-opacity:1;stroke:none;stroke-width:.309422" d="M4.498 3.704v1.058H4.5a1.058 1.086 0 0 0 1.056 1.059 1.058 1.086 0 0 0 .601-.193l.193.193h.265V3.704h-.53v1.058a.53.53 0 0 1-.529.53.53.53 0 0 1-.529-.53V3.704Z" transform="translate(-1.323)"/><path style="fill:#000;fill-opacity:1;stroke:none;stroke-width:.264583" d="M8.202 2.646a1.058 1.587 0 0 0-1.058 1.587 1.058 1.587 0 0 0 1.058 1.588A1.058 1.587 0 0 0 9.26 4.233a1.058 1.587 0 0 0-1.058-1.587zm0 .529a.53 1.058 0 0 1 .53 1.058.53 1.058 0 0 1-.53 1.059.53 1.058 0 0 1-.53-1.059.53 1.058 0 0 1 .53-1.058Z" transform="translate(-1.323)"/></svg>
